!!!COM: Palestrina, Giovanni Perluigi da
!!!OPR: Missa Quando lieta sperai
!!!OMD: Benedictus
!!!OTL: Hosanna
**kern	**kern	**kern	**kern	**kern
*Ibass	*Ibarit	*Itenor	*Icalto	*Icant
!Bassus	!Baritone	!Tenor	!Altus	!Cantus
*clefF4	*clefF4	*clefGv2	*clefG2	*clefG2
*k[]	*k[]	*k[]	*k[]	*k[]
*A:aeo	*A:aeo	*A:aeo	*A:aeo	*A:aeo
*M3/2	*M3/2	*M3/2	*M3/2	*M3/2
=41	=41	=41	=41	=41
1r	2E	2B	1r	1r
.	2E	2B	.	.
2r	2E	2B	2r	2r
=42	=42	=42	=42	=42
1r	2.A	2.c	2e	2r
.	.	.	2e	2a
.	4B	4d	.	.
2r	2c#	2e	2e	2a
=43	=43	=43	=43	=43
1r	2d	2f	1a	2a
.	1B	1d	.	1dd
2r	.	.	2g#	.
=44	=44	=44	=44	=44
1r	2A	2e	2a	2cc#
.	1D	2.d	2.f	4dd
.	.	.	.	4cc
2r	.	.	.	4b
.	.	4c	4e	4a
=45	=45	=45	=45	=45
1r	2F	2A	4c	1a
.	.	.	4d	.
.	1E	1B	1e	.
2r	.	.	.	2g
=46	=46	=46	=46	=46
2AA	2.A	4A	1e	2.cc
.	.	4B	.	.
2AA	.	4c	.	.
.	4B	4d	.	4b
2AA	2c	2e	2r	2a
=47	=47	=47	=47	=47
2.E	2B	2e	2B	2g
.	2G	2r	2B	2e
4F	.	.	.	.
2G	2B	2r	2B	2e
=48	=48	=48	=48	=48
2A	2c	2A	1e	2e
1F	2A	2A	.	1a
.	2r	2A	2d	.
=49	=49	=49	=49	=49
2E	2E	2e	2g	2.b
2r	2E	4g	4e	.
.	.	4f	4f	4a
2r	2E	4e	4g	2b
.	.	4d	4f	.
=50	=50	=50	=50	=50
2AA	1A	4c	4e	1cc
.	.	4B	4d	.
2AA	.	2A	1e	.
2E	2G#	2B	.	2b
=51	=51	=51	=51	=51
2AA	2A	2c	1.e	1a
2r	1E	1B	.	.
2r	.	.	.	2g#
=52	=52	=52	=52	=52
2r	[1.A	2A	2r	1.a
2AA	.	2e	2c#	.
2AA	.	2e	2c#	.
=53	=53	=53	=53	=53
2AA	1.A]	2e	2c#	1a
1D	.	1f	1d	.
.	.	.	.	2a
=54	=54	=54	=54	=54
2C#	[1.A	2e	2e	1.a
1D	.	1d	1f	.
=55	=55	=55	=55	=55
1.AA	1.A]	1.c#	1.e	1.a
==	==	==	==	==
*-	*-	*-	*-	*-
!!!CDT: 1525/^1526/-1594/2/2
!!!OCY: Italia
!!!AGN: Mass (Parody)
!!!AST: renaissance, vocal
!!!ASW: Madrigal 1548 (anon (Rore, Morales))
!!!PWK: Masses, Book 11
!!!RNB: Cadence finals: G,E
!!!YOR: Le Opere Complete, v. 28, p. 73
!!!YOO: Rome, Italy: Fratelli Scalera
!!!END: 1992//
!!!EED: John Miller
!!!YEC: Copyright 2000, John Miller
!!!YEN: United States of America
!!!YEM: Rights to all derivative electronic formats reserved.
!!!YEM: Refer to licensing agreement for further details.
!!!YEM: This file must be accompanied by the licensing agreement.
!!!YEM: A copy of the licensing agreement may be found at http://www.music-cog.ohio-state.edu/HumdrumDatabases/Palestrina/license.txt
!!!EMD: converted to Humdrum by Bret Aarden
